X:60
T: HOER ICH EIN SICHLEIN
N: E0679
O: Europa, Mitteleuropa, Deutschland, Franken
R: Liebes - Lied, Leid, Klage
M: 4/4
L: 1/8
K: F
C2 | F3GA2B2 | c4d4 | c3BA2
c2 | d2c2B2A2 | G4z2
AB | c3BA2G2 | F3AG2
G2 | FAcBA2G2 | F4
G4 | FAcBA2G2 | F4z2

